X:46
T:Broderick's Pub
R:jig
C:Paul S.Cranford
O:20th Century Cape Breton
D:The Lighthouse, Cranford Publications
B:The Lighthouse Collection, ISBN 0-9691181-5-5
N:Contacts ...
N:..... Cranford Publications <http://www.cranfordpub.com>
Z:This abc transcription is for personal use only,
Z:provided this notice remains attached.
Z:Used by permission of the composer and publisher.
Z:Paul Stewart Cranford 
Q:300
L:1/8
M:6/8
K:Edor
e2 B dBA|BdB AFD|EGF EDB,|DEF A2 F|!
Eec dBA|BdB AFD|EGB, DEF|BAF E3:|!
|:egf edB|a^ga baf|egf efg|ada fed|!
[1egf edB|a^ga baf|egB def|baf e3:|!
[2eBe ded|BdB AFD|EGB, DEF|BAF E3|]!
